X: 1820
T: Paddy Carey   #2
R: jig, march
%S: s:3 b:16(8+8+8)
B: O'Neill's 1850 #1820
Z: Bob Safranek, rjs@gsp.org
Z: Compacted via repeats and multiple endings [JC]
M: 6/8
L: 1/8
K: D
|: A2d {e}dcd | f2d {e}dcd |[1,3 B2e e2f | gfe dcB :|[2,4 ecA ABc | def e2d :|
|: d2f g2b | a2b afd |[1,3 d2e g2b | afd e2d :|[2,4 ecA ABc | def e2d :|
|::: g2e {f}ede | f2d {e}dcd | ecA ABc | def e2d y:::| y6 y6 y6 y6 y6 y6
